X: 1960
T: Wa La Wop A Ping
B: australian traditional tunes wiki
M:2/4
L:1/16
R: Set Tune
Q: 1/4=100
K:G
V:1 
|:d2|"G"g2g2 a2g2|"D7"f6d2|a2a2 b2a2|"G"g6B2|d2d2 e2B2|"C"d2c4g2|"D7"f2f2 f2ef|"G"g4g2:|
% abcbook-tune_id 6342d5be2410e0274c62e96b


% abcbook-boost 0
% abcbook-tablature 
% abcbook-transpose 
% abcbook-lastupdated 1665324490547
% abcbook-soundfonts 
% abcbook-repeats 1
% NFF Book 2013

